!!!COM: Music21
!!!OTL: Alalá do rizón
!!!OMV: pezas_alalas_alala-do-rizon_alala-do-rizon-partitura.musicxml
**kern
*I"Gaita
*I'Bag
*clefG^2
*k[b-e-a-]
*M2/4
*MM60
=1
!LO:TX:a:t=[quarter]=60
2gg
=
2ccc
=
4bb-
4dd
=
4aa-
4cc
=
2gg
=
2aa-
=
4.ccc
8ee-
=
8ggL
8ffJ
8ee-L
8ddJ
=
[2cc
=
2cc;]
=||
2gg
=
2ccc
=
4bb-
4dd
=
4aa-
4cc
!!linebreak:original
=
2gg
=
2aa-
=
2dd
!!linebreak:original
=
8ggL
8ffJ
8ee-L
8ddJ
=
8ggL
8ccJ
8ddL
8ee-J
=
8ggL
8bnJ
8ccL
8ddJ
=
8ggL
8ffJ
8ee-L
8ddJ
=
[2cc
=
2cc;]
==
*-
